alipay.svg

<svg viewBox="0 0 24 24" xmlns="http://www.w3.org/2000/svg"><path d="M9.94967 2.80776C9.50148 2.80776 9.52102 3.23641 9.52102 3.23641L9.52102 5.9036L3.18647 5.9036L3.18647 6.9514L9.52102 6.9514L9.52102 8.80893L4.28191 8.80893L4.28191 9.8091L14.4267 9.8091C14.0557 11.0983 13.5415 12.3292 12.9503 13.4289C9.66028 12.3341 6.154 11.4538 3.94854 12C2.53804 12.3505 1.6245 12.964 1.09083 13.6194C-1.35859 16.625 0.394985 21.1922 5.56787 21.1922C8.62642 21.1922 11.5716 19.4541 13.8552 16.6199C17.2612 18.2712 24 21.097 24 21.097L24 17.0962C24 17.0962 23.1612 17.0235 19.4277 15.7626C18.3902 15.4122 17.0251 14.8519 15.4745 14.2861C16.4057 12.6535 17.129 10.8295 17.6178 8.80893L12.5216 8.80893L12.5216 6.9514L18.7609 6.9514L18.7609 5.9036L12.5216 5.9036L12.5216 2.80776L9.94967 2.80776ZM4.37718 13.5241C6.77319 13.2853 8.99922 14.236 11.6166 15.5245C9.77686 17.945 7.43594 19.43 5.09161 19.43C1.05806 19.43-0.140501 16.2298 1.85288 14.4767C2.51807 13.8842 3.72914 13.589 4.37718 13.5241Z" fill="#1677ff"/></svg>

<svg viewBox="0 0 24 24" xmlns="http://www.w3.org/2000/svg"><path d="M9.95 2.808c-.449 0-.429.428-.429.428v2.668H3.186V6.95h6.335V8.81h-5.24v1h10.146a18.54 18.54 0 0 1-1.477 3.62C9.66 12.334 6.154 11.454 3.95 12c-1.411.35-2.324.964-2.858 1.62-2.45 3.005-.696 7.572 4.477 7.572 3.058 0 6.004-1.738 8.287-4.572C17.261 18.27 24 21.097 24 21.097v-4s-.839-.074-4.572-1.334c-1.038-.35-2.403-.911-3.954-1.477.932-1.633 1.655-3.457 2.144-5.477h-5.096V6.95h6.239V5.904h-6.24V2.808H9.95ZM4.377 13.524c2.396-.239 4.622.712 7.24 2-1.84 2.421-4.181 3.906-6.525 3.906-4.034 0-5.233-3.2-3.24-4.953.666-.593 1.877-.888 2.525-.953Z" fill="#1677ff"/></svg>
